X: 712
M: 6/8
L: 1/8
K: F
|:\
cde f2f | fgf e2d | cAA A2G | cAA A2G |\
cde f2f | fgf e2d | cAF F2G | AF F3 :|
|:\

